X:33
T:Where's the Cat
Z: id:dc-slide-34
M:6/8
L:1/8
K:A Major
EFE A2E|F2E A3|EFE A2c|B2A F2E|!
EFE A2E|F2E A3|cec d2c|B2A F2E:|!
cBc e2c|BAF d3|cBc e2c|B2A F2E|!
cBc e2c|BAF d3|faf e2c|B2A F2E:|!

